packages/katcn/src/icons/svg/call.svg

<svg width="24" height="24" viewBox="0 0 24 24" fill="none" xmlns="http://www.w3.org/2000/svg">
<path fill-rule="evenodd" clip-rule="evenodd" d="M3.57495 1.78507C4.86403 0.500096 7.02542 0.85943 7.93802 2.37559L7.94437 2.38614L10.0481 5.98116C10.6676 7.06185 10.5113 8.45112 9.58705 9.37241L9.23813 9.72022C10.4736 11.658 12.3503 13.575 14.2473 14.7248L14.5942 14.4175C15.5184 13.5164 16.898 13.3683 17.9731 13.9807L17.9809 13.9852L21.5408 16.0552C22.4222 16.4771 22.8861 17.2924 22.981 18.1064C23.0759 18.9196 22.8156 19.8022 22.1826 20.4332L20.983 21.629C19.7376 22.8705 17.7101 23.4199 15.9799 22.636C13.7025 21.7053 10.2868 19.9491 7.17369 16.8459C4.05248 13.7347 2.29312 10.2235 1.36877 8.07565C0.580206 6.3562 1.1236 4.34015 2.36039 3.0955L3.54727 1.8138C3.5563 1.80404 3.56553 1.79446 3.57495 1.78507ZM4.99956 3.18371L3.81678 4.46098C3.80774 4.47074 3.79851 4.48032 3.78909 4.48971C3.04036 5.23606 2.79124 6.39219 3.19016 7.25375C3.194 7.26205 3.19773 7.2704 3.20134 7.2788C4.07772 9.31719 5.71644 12.5749 8.5874 15.4367C11.4635 18.3037 14.635 19.9343 16.7561 20.7993C16.7697 20.8048 16.7831 20.8107 16.7965 20.8168C17.6608 21.2145 18.8206 20.9661 19.5693 20.2198L20.7689 19.024C20.9356 18.8578 21.0252 18.5946 20.9951 18.3366C20.9669 18.095 20.8472 17.9294 20.6622 17.8457C20.6315 17.8317 20.6014 17.8162 20.5722 17.7992L16.9781 15.7093C16.6631 15.5317 16.2592 15.5759 15.9848 15.8495C15.971 15.8633 15.9567 15.8767 15.9421 15.8896L15.0424 16.6868C14.7325 16.9613 14.2849 17.0168 13.9171 16.8261C11.2199 15.4281 8.58822 12.6858 7.10831 10.0515C6.88962 9.66223 6.95716 9.17549 7.27365 8.86001L8.17334 7.96319C8.44778 7.68962 8.49207 7.28699 8.31392 6.97306L6.22104 3.39666C5.93617 2.92942 5.31277 2.88679 4.99956 3.18371Z" fill="black"/>
<path fill-rule="evenodd" clip-rule="evenodd" d="M16.2554 7.74458C15.754 7.24317 14.9795 7.06344 14.4318 7.24599C13.862 7.43594 13.2461 7.12797 13.0561 6.55812C12.8662 5.98826 13.1741 5.37232 13.744 5.18237C15.154 4.71235 16.7723 5.18519 17.7935 6.20645C18.8148 7.22771 19.2876 8.84596 18.8176 10.256C18.6277 10.8259 18.0117 11.1338 17.4419 10.9439C16.872 10.7539 16.5641 10.138 16.754 9.56815C16.9366 9.0205 16.7568 8.24598 16.2554 7.74458Z" fill="black"/>
<path fill-rule="evenodd" clip-rule="evenodd" d="M18.9493 5.05068C17.1752 3.27653 14.5962 2.65215 12.2855 3.27428C11.7415 3.42074 11.1818 3.09848 11.0353 2.5545C10.8889 2.01052 11.2111 1.45081 11.7551 1.30435C14.7486 0.498423 18.0859 1.3021 20.3919 3.60812C22.6979 5.91414 23.5016 9.25145 22.6957 12.2449C22.5492 12.7889 21.9895 13.1111 21.4455 12.9647C20.9015 12.8182 20.5793 12.2585 20.7257 11.7145C21.3478 9.40375 20.7235 6.82482 18.9493 5.05068Z" fill="black"/>
</svg>

<svg xmlns="http://www.w3.org/2000/svg" fill="none" viewBox="0 0 24 24"><path fill="#000" fill-rule="evenodd" d="M3.575 1.785C4.864.5 7.025.86 7.938 2.375l.006.011 2.104 3.595c.62 1.08.463 2.47-.461 3.391l-.349.348c1.236 1.938 3.112 3.855 5.01 5.005l.346-.307a2.83 2.83 0 0 1 3.38-.437l.007.004 3.56 2.07c.881.422 1.345 1.237 1.44 2.051a2.84 2.84 0 0 1-.798 2.327l-1.2 1.196c-1.245 1.241-3.273 1.79-5.003 1.007-2.277-.93-5.693-2.687-8.806-5.79-3.122-3.111-4.88-6.623-5.805-8.77-.789-1.72-.245-3.736.991-4.98l1.187-1.282zM5 3.184 3.817 4.46l-.028.029c-.749.746-.998 1.902-.599 2.764l.011.025c.877 2.038 2.515 5.296 5.386 8.158 2.877 2.867 6.048 4.497 8.17 5.362l.04.018c.864.398 2.024.15 2.772-.597l1.2-1.196a.85.85 0 0 0 .226-.687c-.028-.242-.148-.408-.333-.491a1 1 0 0 1-.09-.047l-3.594-2.09a.826.826 0 0 0-.993.14l-.043.04-.9.798c-.31.274-.757.33-1.125.14-2.697-1.399-5.329-4.141-6.809-6.776a.994.994 0 0 1 .166-1.191l.9-.897a.82.82 0 0 0 .14-.99L6.22 3.397c-.285-.468-.908-.51-1.221-.213m11.256 4.561c-.501-.502-1.275-.682-1.823-.499a1.088 1.088 0 0 1-.688-2.064c1.41-.47 3.028.003 4.05 1.024 1.02 1.022 1.494 2.64 1.024 4.05a1.088 1.088 0 1 1-2.064-.688c.183-.547.003-1.322-.499-1.823" clip-rule="evenodd"/><path fill="#000" fill-rule="evenodd" d="M18.95 5.05a6.92 6.92 0 0 0-6.664-1.776 1.02 1.02 0 0 1-.53-1.97c2.993-.806 6.33-.002 8.636 2.304s3.11 5.643 2.304 8.637a1.02 1.02 0 0 1-1.97-.53 6.92 6.92 0 0 0-1.777-6.664" clip-rule="evenodd"/></svg>
